packages/foundations/assets/icons/functional/images/devices/telephone_20.svg

<svg width="20" height="20" viewBox="0 0 20 20" fill="none" xmlns="http://www.w3.org/2000/svg">
<g clip-path="url(#clip0_185_752)">
<path fill-rule="evenodd" clip-rule="evenodd" d="M6.08389 2.28629C6.61665 2.28629 7.1493 2.4638 7.54384 2.87805L9.93099 5.2849C10.2466 5.60063 10.3847 5.97547 10.3847 6.37001C10.3847 6.80406 10.2071 7.238 9.89149 7.55374L9.0826 8.36252C10.0703 9.6495 10.3811 10.0233 11.6079 10.9272L12.4759 10.0592C12.7916 9.74357 13.2058 9.62515 13.5807 9.62515C13.9752 9.62515 14.3501 9.78297 14.6657 10.0789L17.0331 12.4858C17.4474 12.9001 17.625 13.4328 17.625 13.9654C17.625 15.4253 15.3563 17.7137 13.5413 17.7137C8.79678 17.7137 2.375 11.2943 2.375 6.74485C2.375 4.66121 4.30365 2.28629 6.08389 2.28629ZM6.06196 4.20423C6.02478 4.19989 5.96558 4.21959 5.90637 4.25909C5.07778 4.65363 4.3084 5.81755 4.3084 6.74485C4.3084 10.1317 9.9996 15.7606 13.2058 15.7606C14.2317 15.7606 14.7644 15.3068 15.6127 14.2613C15.7705 14.0245 15.7311 13.9259 15.6719 13.8273L13.5807 11.7164L12.397 12.8606C12.1997 13.0184 11.9827 13.1565 11.7065 13.1565C10.6371 13.1565 6.87307 9.40187 6.87307 8.24421C6.87307 7.98768 6.95198 7.77066 7.1493 7.59314L8.29352 6.40942L6.1826 4.25909C6.14784 4.21989 6.10884 4.20423 6.06196 4.20423Z" fill="#1A1C1F"/>
</g>
<defs>
<clipPath id="clip0_185_752">
<rect width="20" height="20" fill="white"/>
</clipPath>
</defs>
</svg>

<svg xmlns="http://www.w3.org/2000/svg" width="20" height="20" fill="none"><g clip-path="url(#a)"><path fill="#1A1C1F" fill-rule="evenodd" d="M6.084 2.286c.533 0 1.065.178 1.46.592L9.93 5.285c.316.316.454.69.454 1.085 0 .434-.178.868-.494 1.184l-.808.809c.987 1.287 1.298 1.66 2.525 2.564l.868-.868c.316-.315.73-.434 1.105-.434.394 0 .77.158 1.085.454l2.367 2.407c.414.414.592.947.592 1.48 0 1.46-2.269 3.748-4.084 3.748-4.744 0-11.166-6.42-11.166-10.97 0-2.083 1.929-4.458 3.709-4.458m-.022 1.918c-.037-.004-.096.016-.156.055-.828.395-1.598 1.559-1.598 2.486 0 3.387 5.692 9.016 8.898 9.016 1.026 0 1.558-.454 2.407-1.5.158-.236.118-.335.059-.434l-2.091-2.11-1.184 1.144c-.197.157-.414.295-.69.295-1.07 0-4.834-3.754-4.834-4.912 0-.256.079-.473.276-.65l1.145-1.185-2.111-2.15a.15.15 0 0 0-.121-.055" clip-rule="evenodd"/></g><defs><clipPath id="a"><path fill="#fff" d="M0 0h20v20H0z"/></clipPath></defs></svg>
